flaticon/grooming/cream.svg

<svg xmlns="http://www.w3.org/2000/svg" width="32" height="32" viewBox="0 0 24 24">
    <path d="M24 2.601562L24 .199219 16 .199219 16 3.800781 14.800781 3.800781 14.800781 5.609375C13.640625 6.019531 12.800781 7.117188 12.800781 8.441406L12.800781 20.800781C12.800781 22.441406 14.121094 23.800781 15.800781 23.800781L21 23.800781C22.640625 23.800781 24 22.441406 23.960938 20.800781L23.960938 8.441406C23.960938 7.160156 23.152344 6.046875 22 5.625L22 3.800781 20.800781 3.800781 20.800781 2.601562zM13.601562 17L17.601562 17C17.839844 17 18 16.839844 18 16.601562 18 16.359375 17.839844 16.199219 17.601562 16.199219L13.601562 16.199219 13.601562 15 17.601562 15C17.839844 15 18 14.839844 18 14.601562 18 14.359375 17.839844 14.199219 17.601562 14.199219L13.601562 14.199219 13.601562 13 15.601562 13C15.839844 13 16 12.839844 16 12.601562 16 12.359375 15.839844 12.199219 15.601562 12.199219L13.601562 12.199219 13.601562 10.601562 20 10.601562 20 18.601562 13.601562 18.601562zM23.160156 8.441406L23.160156 20.761719C23.160156 21.960938 22.199219 22.960938 20.960938 22.960938L15.800781 22.960938C14.601562 22.960938 13.601562 22 13.601562 20.761719L13.601562 19.398438 20.800781 19.398438 20.800781 9.800781 13.601562 9.800781 13.601562 8.398438C13.601562 7.199219 14.558594 6.199219 15.800781 6.199219L15.800781 6.238281 20.960938 6.238281C22.160156 6.238281 23.160156 7.199219 23.160156 8.441406zM21.199219 4.601562L21.199219 5.398438 15.601562 5.398438 15.601562 4.601562zM16.800781 3.800781L16.800781 1 23.199219 1 23.199219 1.800781 20 1.800781 20 3.800781zM5.199219 6.199219C2.238281 6.199219 0 7.238281 0 8.601562L0 19C0 20.359375 2.238281 21.398438 5.199219 21.398438 8.160156 21.398438 10.398438 20.359375 10.398438 19L10.398438 8.601562C10.398438 7.238281 8.160156 6.199219 5.199219 6.199219zM9.601562 9.921875L9.601562 11C9.601562 11.761719 7.71875 12.601562 5.199219 12.601562 2.679688 12.601562.800781 11.761719.800781 11L.800781 9.921875C1.671875 10.5625 3.152344 10.957031 4.90625 10.996094 4.925781 10.996094 4.945312 10.996094 4.96875 10.996094 4.992188 11 5.019531 11 5.046875 11 5.097656 11 5.148438 11 5.199219 11 5.25 11 5.304688 11 5.355469 11 5.378906 11 5.40625 11 5.433594 10.996094 5.453125 10.996094 5.476562 10.996094 5.496094 10.996094 7.246094 10.957031 8.730469 10.5625 9.601562 9.921875zM5.199219 7C7.71875 7 9.601562 7.839844 9.601562 8.601562 9.601562 8.636719 9.597656 8.671875 9.585938 8.707031 9.570312 8.777344 9.539062 8.851562 9.492188 8.921875 9.476562 8.945312 9.457031 8.96875 9.441406 8.996094 9.421875 9.019531 9.398438 9.042969 9.378906 9.066406 9.34375 9.101562 9.308594 9.136719 9.265625 9.171875 9.238281 9.195312 9.210938 9.21875 9.179688 9.238281 9.167969 9.25 9.152344 9.261719 9.136719 9.273438 8.945312 9.410156 8.703125 9.539062 8.417969 9.65625 8.347656 9.683594 8.269531 9.714844 8.195312 9.742188 8.144531 9.757812 8.089844 9.777344 8.035156 9.792969 7.980469 9.8125 7.925781 9.828125 7.871094 9.847656 7.703125 9.894531 7.523438 9.941406 7.335938 9.980469 6.992188 10.058594 6.621094 10.117188 6.222656 10.152344 6.148438 10.160156 6.078125 10.164062 6.003906 10.171875 5.742188 10.191406 5.476562 10.199219 5.199219 10.199219 4.925781 10.199219 4.65625 10.191406 4.398438 10.171875 4.324219 10.164062 4.25 10.160156 4.179688 10.152344 3.78125 10.117188 3.40625 10.058594 3.0625 9.980469 2.875 9.941406 2.695312 9.894531 2.527344 9.847656 2.472656 9.828125 2.417969 9.8125 2.363281 9.792969 2.308594 9.777344 2.257812 9.757812 2.207031 9.742188 2.128906 9.714844 2.054688 9.683594 1.980469 9.65625 1.695312 9.539062 1.453125 9.410156 1.265625 9.273438 1.25 9.261719 1.234375 9.25 1.21875 9.238281 1.1875 9.21875 1.160156 9.195312 1.132812 9.171875 1.09375 9.136719 1.054688 9.101562 1.023438 9.066406 1 9.042969.980469 9.019531.960938 8.996094.941406 8.96875.925781 8.945312.90625 8.921875.859375 8.851562.828125 8.777344.8125 8.707031.804688 8.671875.800781 8.636719.800781 8.601562.800781 7.839844 2.679688 7 5.199219 7zM.800781 15.398438L2.398438 15.398438 2.398438 17.800781.800781 17.800781zM5.199219 20.601562C2.679688 20.601562.800781 19.761719.800781 19L.800781 18.601562 2.800781 18.601562C3.039062 18.601562 3.199219 18.441406 3.199219 18.199219L3.199219 15C3.199219 14.761719 3.039062 14.601562 2.800781 14.601562L.800781 14.601562.800781 12.320312C1.671875 12.964844 3.152344 13.355469 4.90625 13.394531 4.925781 13.398438 4.945312 13.398438 4.96875 13.398438 4.992188 13.398438 5.019531 13.398438 5.046875 13.398438 5.097656 13.398438 5.148438 13.398438 5.199219 13.398438 5.25 13.398438 5.304688 13.398438 5.355469 13.398438 5.382812 13.398438 5.40625 13.398438 5.433594 13.398438 5.453125 13.398438 5.476562 13.398438 5.496094 13.394531 7.246094 13.355469 8.730469 12.964844 9.601562 12.320312L9.601562 14.601562 6 14.601562C5.761719 14.601562 5.601562 14.761719 5.601562 15L5.601562 18.199219C5.601562 18.441406 5.761719 18.601562 6 18.601562L9.601562 18.601562 9.601562 19C9.601562 19.761719 7.71875 20.601562 5.199219 20.601562zM9.601562 16.199219L7.601562 16.199219C7.359375 16.199219 7.199219 16.359375 7.199219 16.601562 7.199219 16.839844 7.359375 17 7.601562 17L9.601562 17 9.601562 17.800781 6.398438 17.800781 6.398438 15.398438 9.601562 15.398438zM9.601562 16.199219"/>
</svg>

<svg xmlns="http://www.w3.org/2000/svg" width="32" height="32" viewBox="0 0 24 24">
    <path d="M24 2.602V.199h-8v3.602h-1.2v1.808c-1.16.41-2 1.508-2 2.832v12.36c0 1.64 1.321 3 3 3H21c1.64 0 3-1.36 2.96-3V8.44A3.002 3.002 0 0 0 22 5.625V3.801h-1.2V2.6zM13.602 17h4c.238 0 .398-.16.398-.398 0-.243-.16-.403-.398-.403h-4V15h4c.238 0 .398-.16.398-.398 0-.243-.16-.403-.398-.403h-4V13h2c.238 0 .398-.16.398-.398 0-.243-.16-.403-.398-.403h-2v-1.597H20v8h-6.398zm9.558-8.559v12.32c0 1.2-.96 2.2-2.2 2.2H15.8c-1.198 0-2.198-.961-2.198-2.2v-1.363H20.8V9.801h-7.2V8.398c0-1.199.958-2.199 2.2-2.199v.04h5.16c1.2 0 2.2.96 2.2 2.202zm-1.96-3.84v.797h-5.598v-.796zm-4.4-.8V1h6.4v.8H20v2zm0 0M5.2 6.2C2.237 6.2 0 7.237 0 8.601V19c0 1.36 2.238 2.398 5.2 2.398 2.96 0 5.198-1.039 5.198-2.398V8.602c0-1.364-2.238-2.403-5.199-2.403zm4.402 3.722V11c0 .762-1.883 1.602-4.403 1.602-2.52 0-4.398-.84-4.398-1.602V9.922c.87.64 2.351 1.035 4.105 1.074h.063c.023.004.05.004.078.004h.308c.024 0 .051 0 .079-.004h.062c1.75-.039 3.234-.434 4.106-1.074zM5.199 7c2.52 0 4.403.84 4.403 1.602 0 .035-.004.07-.016.105a.644.644 0 0 1-.094.215c-.015.023-.035.047-.05.074-.02.024-.044.047-.063.07-.035.036-.07.07-.113.106-.028.023-.055.047-.086.066-.012.012-.028.024-.043.035a3.6 3.6 0 0 1-.719.383c-.07.028-.148.059-.223.086-.05.016-.105.035-.16.051-.055.02-.11.035-.164.055a8.246 8.246 0 0 1-.535.132 8.326 8.326 0 0 1-1.113.172c-.075.008-.145.012-.22.02-.26.02-.526.027-.804.027-.273 0-.543-.008-.8-.027-.075-.008-.149-.012-.22-.02a8.387 8.387 0 0 1-1.117-.172 8.246 8.246 0 0 1-.535-.132c-.054-.02-.109-.036-.164-.055-.054-.016-.105-.035-.156-.05-.078-.028-.152-.06-.227-.087a3.456 3.456 0 0 1-.714-.383l-.047-.035a1.42 1.42 0 0 1-.195-.172C1 9.043.98 9.02.96 8.996c-.02-.027-.035-.05-.055-.074a.644.644 0 0 1-.094-.215.485.485 0 0 1-.011-.105C.8 7.84 2.68 7 5.199 7zM.801 15.398h1.597v2.403H.801zm4.398 5.204c-2.52 0-4.398-.84-4.398-1.602v-.398h2c.238 0 .398-.16.398-.403V15c0-.238-.16-.398-.398-.398h-2V12.32c.87.645 2.351 1.035 4.105 1.075.02.003.04.003.063.003h.465c.02 0 .043 0 .062-.003 1.75-.04 3.234-.43 4.106-1.075v2.282H6c-.238 0-.398.16-.398.398v3.2c0 .241.16.402.398.402h3.602V19c0 .762-1.883 1.602-4.403 1.602zm4.403-4.403h-2c-.243 0-.403.16-.403.403 0 .238.16.398.403.398h2v.8H6.398v-2.402h3.204zm0 0"/>
</svg>
